!!!COM: des Prez, Josquin
!!!CDT: ~1450-1521/08/27
!!!OTL: Cueur langoreulx
!!!AGN: Chanson
!!!SCT: NJE 29.2
!!!SCA: New Josquin Edition 29.2
!!!voices: 5
**kern	**text	**kern	**text	**kern	**text	**kern	**text	**kern	**text
*staff5	*	*staff4	*	*staff3	*	*staff2	*	*staff1	*
*Ivox	*	*Ivox	*	*Ivox	*	*Ivox	*	*Ivox	*
*I"Bassus	*	*I"Tenor	*	*I"Quinta pars	*	*I"Altus	*	*I"Superius	*
*I'B	*	*I'T	*	*I'Q	*	*I'Ct	*	*I'S	*
*clefF4	*	*clefGv2	*	*clefGv2	*	*clefGv2	*	*clefG2	*
*k[]	*	*k[]	*	*k[]	*	*k[]	*	*k[]	*
*M2/1	*	*M2/1	*	*M2/1	*	*M2/1	*	*M2/1	*
*met(C|)	*	*met(C|)	*	*met(C|)	*	*met(C|)	*	*met(C|)	*
=1-	=1-	=1-	=1-	=1-	=1-	=1-	=1-	=1-	=1-
!	!	!	!	!	!	!	!	!LO:TX:Z=6:t=Canon at the lower 5th (S-->Q, four breves)	!
1.A	Cueur	0r	.	0r	.	1A	Cueur	0a	Cueur
.	.	.	.	.	.	1A	lan-	.	.
2G\	.	.	.	.	.	.	.	.	.
=2	=2	=2	=2	=2	=2	=2	=2	=2	=2
1F	lan-	0r	.	0r	.	1A	-go-	1a	lan-
1F	-go-	.	.	.	.	[1c	-reulx,	1a	-go-
=3	=3	=3	=3	=3	=3	=3	=3	=3	=3
1.E	-reulx,	0e	Cueur	0r	.	2c\]	.	0g	-reulx,
.	.	.	.	.	.	4B\	.	.	.
.	.	.	.	.	.	4A/	.	.	.
.	.	.	.	.	.	2B\	.	.	.
2C/	.	.	.	.	.	2c\	.	.	.
=4	=4	=4	=4	=4	=4	=4	=4	=4	=4
0C	.	1e	lan-	0r	.	2G/	.	1r	.
.	.	.	.	.	.	2.c\	cueur	.	.
.	.	1e	-go-	.	.	.	.	1g	qui
.	.	.	.	.	.	4d\	.	.	.
.	.	.	.	.	.	2e\	.	.	.
=5	=5	=5	=5	=5	=5	=5	=5	=5	=5
0r	.	0d	-reulx,	0d	Cueur	2f\	lan-	1a	ne
.	.	.	.	.	.	2d\	-go-	.	.
.	.	.	.	.	.	2.f\	-reulx,	2d/	fais
.	.	.	.	.	.	.	.	[2a/	que
.	.	.	.	.	.	4g\	.	.	.
=6	=6	=6	=6	=6	=6	=6	=6	=6	=6
0r	.	1r	.	1d	lan-	[0a	.	4a/]	.
.	.	.	.	.	.	.	.	4g/	.
.	.	.	.	.	.	.	.	4f/	.
.	.	.	.	.	.	.	.	4e/	.
.	.	1d	qui	1d	-go-	.	.	1f	pen-
=7	=7	=7	=7	=7	=7	=7	=7	=7	=7
0A	cueur	1e	ne	0c	-reulx,	1a]	.	0e	-ser,
.	.	2A/	fais	.	.	2r	.	.	.
.	.	[2e\	que	.	.	2A/	cuer	.	.
=8	=8	=8	=8	=8	=8	=8	=8	=8	=8
1A	lan-	4e\]	.	1r	.	2.c\	lan-	0r	.
.	.	4d\	.	.	.	.	.	.	.
.	.	4c\	.	.	.	.	.	.	.
.	.	4B\	.	.	.	4d\	.	.	.
1A	-go-	1c	pen-	1c	qui	2e\	.	.	.
.	.	.	.	.	.	2f\	-go-	.	.
=9	=9	=9	=9	=9	=9	=9	=9	=9	=9
0G	-reulx,	0B	-ser,	1d	ne	2g\	-reulx,	0r	.
.	.	.	.	.	.	2G/	qui	.	.
.	.	.	.	2G/	fais	2d\	ne	.	.
.	.	.	.	[2d\	que	2G/	fais	.	.
=10	=10	=10	=10	=10	=10	=10	=10	=10	=10
1r	.	2r	.	4d\]	.	1d	que	0r	.
.	.	.	.	4c\	.	.	.	.	.
.	.	2G/	qui	4B-i\	.	.	.	.	.
.	.	.	.	4A/	.	.	.	.	.
1G	qui	2d\	ne	1B-i	pen-	1d	pen-	.	.
.	.	2G/	fais	.	.	.	.	.	.
=11	=11	=11	=11	=11	=11	=11	=11	=11	=11
1A	ne	2.c\	que	0A	-ser,	2c\	-ser,	0a	Plain-
.	.	.	.	.	.	2e\	qui	.	.
.	.	4A/	.	.	.	.	.	.	.
2D\	fais	2d\	.	.	.	2f\	ne	.	.
[2A\	que	[2c\	.	.	.	2e\	fais	.	.
=12	=12	=12	=12	=12	=12	=12	=12	=12	=12
4A\]	.	4c\]	.	0r	.	1c	que	1a	-dre,
4G\	.	4B\	.	.	.	.	.	.	.
4F\	.	4A/	.	.	.	.	.	.	.
4E\	.	4G/	.	.	.	.	.	.	.
1F	pen-	1A	pen-	.	.	1d	pen-	1a	ge-
=13	=13	=13	=13	=13	=13	=13	=13	=13	=13
1.E	-ser,	1B	-ser,	0r	.	2.e\	.	0g	-mir,
.	.	.	.	.	.	4d\	.	.	.
.	.	1e	Plain-	.	.	2B\	.	.	.
2C/	.	.	.	.	.	2c\	.	.	.
=14	=14	=14	=14	=14	=14	=14	=14	=14	=14
0C	.	1e	-dre,	0r	.	3G/V	-ser,	1r	.
.	.	.	.	.	.	3A/	.	.	.
.	.	.	.	.	.	3B\Z	.	.	.
.	.	1e	ge-	.	.	3c\V	qui	1g	plou-
.	.	.	.	.	.	3d\	.	.	.
.	.	.	.	.	.	3e\Z	ne	.	.
=15	=15	=15	=15	=15	=15	=15	=15	=15	=15
0r	.	0d	-mir,	0d	Plain-	2f\	fais	1a	-rer
.	.	.	.	.	.	2d\	que	.	.
.	.	.	.	.	.	2.f\	pen-	2d/	et
.	.	.	.	.	.	.	.	[2a/	sou-
.	.	.	.	.	.	4g\	.	.	.
=16	=16	=16	=16	=16	=16	=16	=16	=16	=16
0r	.	1r	.	1d	-dre,	[0a	-ser,	4a/]	.
.	.	.	.	.	.	.	.	4g/	.
.	.	.	.	.	.	.	.	4f/	.
.	.	.	.	.	.	.	.	4e/	.
.	.	1d	plou-	1d	ge-	.	.	1f	-spi-
=17	=17	=17	=17	=17	=17	=17	=17	=17	=17
0A	Plain-	1e	-rer	0c	-mir,	1a]	.	0e	-rer,
.	.	2A/	et	.	.	2r	.	.	.
.	.	[2e\	sou-	.	.	2A/	Plain-	.	.
=18	=18	=18	=18	=18	=18	=18	=18	=18	=18
1A	-dre,	4e\]	.	1r	.	2.c\	-dre,	0r	.
.	.	4d\	.	.	.	.	.	.	.
.	.	4c\	.	.	.	.	.	.	.
.	.	4B\	.	.	.	4d\	.	.	.
1A	ge-	1c	-spi-	1c	plou-	2e\	.	.	.
.	.	.	.	.	.	2f\	ge-	.	.
=19	=19	=19	=19	=19	=19	=19	=19	=19	=19
0G	-mir,	0B	-rer,	1d	-rer	2g\	-mir,	0r	.
.	.	.	.	.	.	2G/	plou-	.	.
.	.	.	.	2G/	et	2d\	-rer	.	.
.	.	.	.	[2d\	sou-	2G/	et	.	.
=20	=20	=20	=20	=20	=20	=20	=20	=20	=20
1r	.	2r	.	4d\]	.	1d	sou-	0r	.
.	.	.	.	4c\	.	.	.	.	.
.	.	2G/	plou-	4B-i\	.	.	.	.	.
.	.	.	.	4A/	.	.	.	.	.
1G	plou-	2d\	-rer	1B-i	-spi-	1d	-spi-	.	.
.	.	2G/	et	.	.	.	.	.	.
=21	=21	=21	=21	=21	=21	=21	=21	=21	=21
1A	-rer	2.c\	sou-	0A	-rer,	1c	-rer,	2.a/	Res-
.	.	4d\	-spi-	.	.	.	.	4b\	.
2A\	et	2e\	-rer,	.	.	1a	Res-	4cc\	.
.	.	.	.	.	.	.	.	4dd\	.
[2c\	sou-	2A/	sou-	.	.	.	.	[2ee\	.
=22	=22	=22	=22	=22	=22	=22	=22	=22	=22
4c\]	.	2c\	.	0r	.	2.g\	-iou-	4ee\]	.
4B\	.	.	.	.	.	.	.	4dd\	.
2G\	.	2B\	-spi-	.	.	.	.	1dd	-iou-
.	.	.	.	.	.	4f\	.	.	.
1A	-spi-	2c\	-rer,	.	.	1e	-ys	.	.
.	.	2A/	.	.	.	.	.	2cc#i\	-ys
=23	=23	=23	=23	=23	=23	=23	=23	=23	=23
1D	-rer,	1r	.	0r	.	1d	toy,	2dd\	toy,
.	.	.	.	.	.	.	.	4a/	res-
.	.	.	.	.	.	.	.	4b\	.
1r	.	2r	.	.	.	1a	res-	4cc\	.
.	.	.	.	.	.	.	.	4dd\	.
.	.	2A/	Res-	.	.	.	.	[2ee\	.
=24	=24	=24	=24	=24	=24	=24	=24	=24	=24
0r	.	2c\	-iou-	0r	.	2.g\	-iou-	4ee\]	.
.	.	.	.	.	.	.	.	4dd\	.
.	.	2G/	.	.	.	.	.	1dd	-iou-
.	.	.	.	.	.	4f\	.	.	.
.	.	1A	-ys	.	.	1e	-ys	.	.
.	.	.	.	.	.	.	.	2cc#i\	-ys
=25	=25	=25	=25	=25	=25	=25	=25	=25	=25
1r	.	1D	toy,	2.d\	Res-	1d	toy,	0dd	toy,
.	.	.	.	4e\	.	.	.	.	.
2r	.	1d	res-	4f\	.	2r	.	.	.
.	.	.	.	4g\	.	.	.	.	.
2D\	Res-	.	.	[2a\	.	[2f\	res-	.	.
=26	=26	=26	=26	=26	=26	=26	=26	=26	=26
2F\	-iou-	2.c\	-iou-	4a\]	.	2f\]	.	0r	.
.	.	.	.	4g\	.	.	.	.	.
2C/	.	.	.	1g	-iou-	2e\	-iou-	.	.
.	.	4B\	.	.	.	.	.	.	.
1D	-ys	1A	-ys	.	.	1d	-ys	.	.
.	.	.	.	2f#i\	-ys	.	.	.	.
=27	=27	=27	=27	=27	=27	=27	=27	=27	=27
1GG	toy,	1G	toy,	2g\	toy,	1B	toy,	0r	.
.	.	.	.	4d\	res-	.	.	.	.
.	.	.	.	4e\	.	.	.	.	.
2r	.	1d	res-	4f\	.	2r	.	.	.
.	.	.	.	4g\	.	.	.	.	.
2D\	res-	.	.	[2a\	.	[2f\	res-	.	.
=28	=28	=28	=28	=28	=28	=28	=28	=28	=28
2F\	-iou-	2.c\	-iou-	4a\]	.	2f\]	.	0r	.
.	.	.	.	4g\	.	.	.	.	.
2C/	.	.	.	1g	-iou-	2e\	-iou-	.	.
.	.	4B\	.	.	.	.	.	.	.
1D	-ys	1A	-ys	.	.	1d	-ys	.	.
.	.	.	.	2f#i\	-ys	.	.	.	.
=29	=29	=29	=29	=29	=29	=29	=29	=29	=29
0GG	toy,	1G	toy,	0g	toy,	2B\	toy,	1r	.
.	.	.	.	.	.	2G/	car	.	.
.	.	2r	.	.	.	2B-i\	ta	1dd	car
.	.	2G/	car	.	.	2B-i\	bel-	.	.
=30	=30	=30	=30	=30	=30	=30	=30	=30	=30
2r	.	2B-i\	ta	0r	.	2G/	-le	1dd	ta
2G\	car	2B-i\	bel-	.	.	2G/	mais-	.	.
2B-i\	ta	2G/	-le	.	.	2.d\	-tres-	1dd	bel-
2B-i\	bel-	2G/	mais-	.	.	.	.	.	.
.	.	.	.	.	.	4B-i\	.	.	.
=31	=31	=31	=31	=31	=31	=31	=31	=31	=31
2G\	-le	2.d\	-tres-	0r	.	4B-i\	.	1.dd	-le
.	.	.	.	.	.	4c\	.	.	.
2.B-i\	mais-	.	.	.	.	4d\	.	.	.
.	.	4c\	.	.	.	4e\	.	.	.
.	.	2B-i\	.	.	.	4f\	.	.	.
4A\	.	.	.	.	.	4g\	.	.	.
2F\	.	2A/	.	.	.	[2a\	.	2cc\	mais-
=32	=32	=32	=32	=32	=32	=32	=32	=32	=32
1G	-tres-	1B-i	-se,	0r	.	4a\]	.	2b-i\	-tres-
.	.	.	.	.	.	4g\	.	.	.
.	.	.	.	.	.	1g	.	2g/	.
1D	-se,	1r	.	.	.	.	.	1a	.
.	.	.	.	.	.	2f#i\	.	.	.
=33	=33	=33	=33	=33	=33	=33	=33	=33	=33
2r	.	2r	.	1r	.	2g\	-se,	0g	-se,
2G\	car	2G/	car	.	.	2d\	car	.	.
2C/	ta	2c\	ta	1g	car	2e\	ta	.	.
2C/	bel-	2c\	bel-	.	.	2e\	bel-	.	.
=34	=34	=34	=34	=34	=34	=34	=34	=34	=34
2G\	-le	2B\	-le	1g	ta	2d\	-le	0r	.
2G\	mais-	2G/	mais-	.	.	2d\	mais-	.	.
1C	-tres-	1c	-tres-	1g	bel-	1e	-tres-	.	.
=35	=35	=35	=35	=35	=35	=35	=35	=35	=35
1G	-se,	2B\	.	1.g	-le	1d	-se,	0r	.
.	.	4G/	.	.	.	.	.	.	.
.	.	4A/	.	.	.	.	.	.	.
1r	.	4B\	.	.	.	1r	.	.	.
.	.	4c\	.	.	.	.	.	.	.
.	.	[2d\	.	2f\	mais-	.	.	.	.
=36	=36	=36	=36	=36	=36	=36	=36	=36	=36
0r	.	4d\]	.	2e\	-tres-	0r	.	0r	.
.	.	4c\	.	.	.	.	.	.	.
.	.	1c	.	2c\	.	.	.	.	.
.	.	.	.	1d	.	.	.	.	.
.	.	2B\	.	.	.	.	.	.	.
=37	=37	=37	=37	=37	=37	=37	=37	=37	=37
1r	.	0c	-se,	0c	-se,	1r	.	1r	.
1C	Par	.	.	.	.	1e	Par	1g	Par
=38	=38	=38	=38	=38	=38	=38	=38	=38	=38
1F	sa	1r	.	0r	.	1c	sa	1a	sa
1F	pi-	1A	Par	.	.	1d	pi-	1a	pi-
=39	=39	=39	=39	=39	=39	=39	=39	=39	=39
2E\	-ti&eacute;	2.c\	sa	0r	.	0e	-ti&eacute;	1g	-ti&eacute;,
2C/	te	.	.	.	.	.	.	.	.
.	.	4d\	.	.	.	.	.	.	.
[1c	veult	1e	pi-	.	.	.	.	1g	te
=40	=40	=40	=40	=40	=40	=40	=40	=40	=40
2c\]	.	1A	-ti&eacute;,	0r	.	0r	.	1.cc	veult
2B\	don-	.	.	.	.	.	.	.	.
2A\	-ner	1r	.	.	.	.	.	.	.
2G\	li-	.	.	.	.	.	.	2b\	don-
=41	=41	=41	=41	=41	=41	=41	=41	=41	=41
2F\	-es-	1r	.	1r	.	1r	.	1a	-ner
2D\	.	.	.	.	.	.	.	.	.
1E	.	1G	par	1c	Par	2r	.	1g	li-
.	.	.	.	.	.	2e\	par	.	.
=42	=42	=42	=42	=42	=42	=42	=42	=42	=42
0D	-se,	1A	sa	1d	sa	2f\	sa	2.f/	-es-
.	.	.	.	.	.	2g\	pi-	.	.
.	.	.	.	.	.	.	.	4e/	.
.	.	2.F/	pi-	1d	pi-	[1a	-ti&eacute;,	1f	.
.	.	4G/	.	.	.	.	.	.	.
=43	=43	=43	=43	=43	=43	=43	=43	=43	=43
1r	.	0A	-ti&eacute;,	1c	-ti&eacute;,	2a\]	.	0e	-se,
.	.	.	.	.	.	4g\	.	.	.
.	.	.	.	.	.	4f\	.	.	.
1AA	te	.	.	1c	te	2e\	.	.	.
.	.	.	.	.	.	2c\	te	.	.
=44	=44	=44	=44	=44	=44	=44	=44	=44	=44
1.D	veult	2r	.	1.f	veult	2d\	veult	0r	.
.	.	2A/	te	.	.	4D/	don-	.	.
.	.	.	.	.	.	4E/	.	.	.
.	.	2D/	veult	.	.	4F/	.	.	.
.	.	.	.	.	.	4G/	.	.	.
2C/	don-	2E/	don-	2e\	don-	[2A/	-ner	.	.
=45	=45	=45	=45	=45	=45	=45	=45	=45	=45
2BB-i/	-ner	2F/	-ner	1d	-ner	4A/]	.	0r	.
.	.	.	.	.	.	4G/	li-	.	.
4AA/	li-	2G/	li-	.	.	2.G/	-es-	.	.
4GG/	.	.	.	.	.	.	.	.	.
1AA	-es-	1C	-es-	1c	li-	.	.	.	.
.	.	.	.	.	.	4F#i/	.	.	.
.	.	.	.	.	.	4F#i/	.	.	.
.	.	.	.	.	.	4E/	.	.	.
=46	=46	=46	=46	=46	=46	=46	=46	=46	=46
1GG	-se,	1D	-se,	2.B\	-es-	1G	-se,	1r	.
.	.	.	.	4A/	.	.	.	.	.
1GG	Joye	1G	Joye	1B	.	2r	.	1g	Joye
.	.	.	.	.	.	2d\	Joye	.	.
=47	=47	=47	=47	=47	=47	=47	=47	=47	=47
1D	et	2F/	et	0A	-se,	2d\	et	1a	et
.	.	2D/	.	.	.	1f	plai-	.	.
1D	plai-	1d	plai-	.	.	.	.	1f	plai-
.	.	.	.	.	.	4e\	.	.	.
.	.	.	.	.	.	4d\	.	.	.
=48	=48	=48	=48	=48	=48	=48	=48	=48	=48
2AA/	-sir,	2c\	-sir,	0r	.	2e\	-sir,	2e/	-sir,
2A\	pour	2c\	pour	.	.	2e\	pour	2cc\	pour
2A\	te	2c\	te	.	.	2e\	te	2cc\	te
2A\	re-	2c\	re-	.	.	2e\	re-	2cc\	re-
=49	=49	=49	=49	=49	=49	=49	=49	=49	=49
1D	-con-	1d	-con-	0r	.	1f	-con-	2b\	-con-
.	.	.	.	.	.	.	.	2.a/	-for-
1E	-for-	1B	-for-	.	.	1e	-for-	.	.
.	.	.	.	.	.	.	.	4g#i/	.
.	.	.	.	.	.	.	.	4g#i/	.
.	.	.	.	.	.	.	.	4f#i/	.
=50	=50	=50	=50	=50	=50	=50	=50	=50	=50
1AA	-ter,	1A	-ter,	1r	.	1c	-ter,	2a/	-ter,
.	.	.	.	.	.	.	.	2cc\	pour
1A	joye	2r	.	1c	Joye	2r	.	2cc\	te
.	.	2A/	joye	.	.	2e\	joye	2cc\	re-
=51	=51	=51	=51	=51	=51	=51	=51	=51	=51
1D	et	1F	et	1d	et	1f	et	2b\	-con-
.	.	.	.	.	.	.	.	2.a/	-for-
1E	plai-	1G	plai-	1B	plai-	2.e\	plai-	.	.
.	.	.	.	.	.	.	.	4g#i/	.
.	.	.	.	.	.	.	.	4g#i/	.
.	.	.	.	.	.	4B\	.	4f#i/	.
=52	=52	=52	=52	=52	=52	=52	=52	=52	=52
2AA/	-sir,	2E/	-sir,	2A/	-sir,	2c\	-sir,	[0al	-ter.
2D\	pour	2D/	.	2f\	pour	2d\	.	.	.
2F\	te	1A	.	2f\	te	2r	.	.	.
2D\	re-	.	.	2f\	re-	2A/	pour	.	.
=53	=53	=53	=53	=53	=53	=53	=53	=53	=53
2A\	-con-	0r	.	2e\	-con-	2c\	te	0a_	.
2D\	.	.	.	2.d\	-for-	2d\	re-	.	.
1A	-for-	.	.	.	.	1e	-con-	.	.
.	.	.	.	4c#i\	.	.	.	.	.
.	.	.	.	4c#i\	.	.	.	.	.
.	.	.	.	4B\	.	.	.	.	.
=54	=54	=54	=54	=54	=54	=54	=54	=54	=54
0D	-ter,	2r	.	2d\	-ter,	2.f\	-for-	0a_	.
.	.	2D/	pour	2f\	pour	.	.	.	.
.	.	.	.	.	.	4d\	.	.	.
.	.	2F/	te	2f\	te	2d\	-ter,	.	.
.	.	2D/	re-	2f\	re-	2A/	pour	.	.
=55	=55	=55	=55	=55	=55	=55	=55	=55	=55
0r	.	2A/	-con-	2e\	-con-	2c\	te	0a_	.
.	.	2D/	.	2.d\	-for-	2d\	re-	.	.
.	.	1A	-for-	.	.	1e	-con-	.	.
.	.	.	.	4c#i\	.	.	.	.	.
.	.	.	.	4c#i\	.	.	.	.	.
.	.	.	.	4B\	.	.	.	.	.
=56	=56	=56	=56	=56	=56	=56	=56	=56	=56
2r	.	0D	-ter,	[0dl	-ter.	2.f\	-for-	0a_	.
2D\	pour	.	.	.	.	.	.	.	.
.	.	.	.	.	.	4d\	.	.	.
2D\	te	.	.	.	.	1d	-ter,	.	.
2D\	re-	.	.	.	.	.	.	.	.
=57	=57	=57	=57	=57	=57	=57	=57	=57	=57
1F	-con-	2r	.	0d_	.	1r	.	0a_	.
.	.	2D/	pour	.	.	.	.	.	.
2.F\	-for-	2D/	te	.	.	2r	.	.	.
.	.	2D/	re-	.	.	2d\	pour	.	.
4D\	.	.	.	.	.	.	.	.	.
=58	=58	=58	=58	=58	=58	=58	=58	=58	=58
[0Dl	-ter.	1F	-con-	0d_	.	2d\	te	0a_	.
.	.	.	.	.	.	2d\	re-	.	.
.	.	2.F/	-for-	.	.	1f	-con-	.	.
.	.	4D/	.	.	.	.	.	.	.
=59	=59	=59	=59	=59	=59	=59	=59	=59	=59
0D]	.	0Dl	-ter.	0d]	.	2.f\	-for-	0a]	.
.	.	.	.	.	.	4d\	.	.	.
.	.	.	.	.	.	1dl	-ter.	.	.
==	==	==	==	==	==	==	==	==	==
*-	*-	*-	*-	*-	*-	*-	*-	*-	*-
!!!RDF**kern: l=long note in original notation
!!!RDF**kern: i=editorial accidental
!!!ENC: Will Watson 22/08/2011
!!!END: 2011/08/22/
!!!EED: Jesse Rodin
!!!EEV: 2011/10/07/
!!attribution-level@Jos: 2 (provisionally attributable [parentheses checkmark])
!!!ONB: Translated from MusicXML and edited on 2011/10/07/ by Craig Sapp
!!muse2ps:  C^@{COM}\n@{SCT}^i2I150v75,75,75,75,110c105z18l2780t100
